raw/deprecated/partial-blank.svg

<svg width="80" height="80" viewBox="0 0 80 80" fill="none" xmlns="http://www.w3.org/2000/svg">
<rect opacity="0.01" width="80" height="80" fill="#D8D8D8"/>
<path d="M21.5009 26H22.7009V24.8H21.5009V26ZM15.4468 29.6488L14.3427 29.1786V29.1786L15.4468 29.6488ZM7.89453 47.3801L6.7905 46.9099L5.6927 49.4874L8.31586 48.5037L7.89453 47.3801ZM21.5035 47V48.2H22.7091L22.7035 46.9944L21.5035 47ZM58.4983 47L57.2983 46.9944L57.2927 48.2H58.4983V47ZM72.0351 47.3536L71.6283 48.4826L74.2092 49.4125L73.1403 46.8861L72.0351 47.3536ZM64.5503 29.6622L65.6554 29.1946V29.1946L64.5503 29.6622ZM58.5009 26V24.8H57.3009V26H58.5009ZM21.5009 24.8H20.9669V27.2H21.5009V24.8ZM20.9669 24.8C18.0808 24.8 15.4737 26.5234 14.3427 29.1786L16.5508 30.1191C17.3047 28.3489 19.0429 27.2 20.9669 27.2V24.8ZM14.3427 29.1786L6.7905 46.9099L8.99856 47.8504L16.5508 30.1191L14.3427 29.1786ZM8.31586 48.5037C8.83855 48.3077 9.40575 48.2 10.0009 48.2V45.8C9.11363 45.8 8.26125 45.961 7.47321 46.2565L8.31586 48.5037ZM10.0009 48.2H21.5035V45.8H10.0009V48.2ZM22.7035 46.9944C22.7009 46.4407 22.7009 45.8454 22.7009 45.2H20.3009C20.3009 45.844 20.3009 46.4453 20.3035 47.0056L22.7035 46.9944ZM22.7009 45.2V26H20.3009V45.2H22.7009ZM58.4983 48.2H70.0009V45.8H58.4983V48.2ZM70.0009 48.2C70.5743 48.2 71.1217 48.3 71.6283 48.4826L72.4419 46.2247C71.6781 45.9495 70.8556 45.8 70.0009 45.8V48.2ZM73.1403 46.8861L65.6554 29.1946L63.4451 30.1297L70.93 47.8212L73.1403 46.8861ZM65.6554 29.1946C64.5284 26.5308 61.9168 24.8 59.0245 24.8V27.2C60.9527 27.2 62.6938 28.3539 63.4451 30.1297L65.6554 29.1946ZM59.0245 24.8H58.5009V27.2H59.0245V24.8ZM57.3009 26V45.2H59.7009V26H57.3009ZM57.3009 45.2C57.3009 45.8454 57.3009 46.4407 57.2983 46.9944L59.6983 47.0056C59.7009 46.4453 59.7009 45.844 59.7009 45.2H57.3009Z" fill="#A8B0BF"/>
<path d="M29.125 47L30.3157 46.8512L30.1843 45.8H29.125V47ZM50.875 47V45.8H49.8157L49.6843 46.8512L50.875 47ZM50.438 50.4961L51.6287 50.645V50.645L50.438 50.4961ZM29.562 50.4961L30.7528 50.3473V50.3473L29.562 50.4961ZM12 48.2H29.125V45.8H12V48.2ZM7.2 53C7.2 50.349 9.34903 48.2 12 48.2V45.8C8.02355 45.8 4.8 49.0236 4.8 53H7.2ZM7.2 66V53H4.8V66H7.2ZM12 70.8C9.34903 70.8 7.2 68.651 7.2 66H4.8C4.8 69.9765 8.02355 73.2 12 73.2V70.8ZM68 70.8H12V73.2H68V70.8ZM72.8 66C72.8 68.651 70.651 70.8 68 70.8V73.2C71.9764 73.2 75.2 69.9764 75.2 66H72.8ZM72.8 53V66H75.2V53H72.8ZM68 48.2C70.651 48.2 72.8 50.349 72.8 53H75.2C75.2 49.0235 71.9764 45.8 68 45.8V48.2ZM50.875 48.2H68V45.8H50.875V48.2ZM49.6843 46.8512L49.2472 50.3473L51.6287 50.645L52.0657 47.1488L49.6843 46.8512ZM49.2472 50.3473C49.0721 51.7485 47.881 52.8 46.4689 52.8V55.2C49.0914 55.2 51.3034 53.2472 51.6287 50.645L49.2472 50.3473ZM46.4689 52.8H33.5311V55.2H46.4689V52.8ZM33.5311 52.8C32.119 52.8 30.9279 51.7485 30.7528 50.3473L28.3713 50.645C28.6966 53.2472 30.9086 55.2 33.5311 55.2V52.8ZM30.7528 50.3473L30.3157 46.8512L27.9343 47.1488L28.3713 50.645L30.7528 50.3473Z" fill="#A8B0BF"/>
<path fill-rule="evenodd" clip-rule="evenodd" d="M31.1008 5.79985H31.0483C29.4126 5.79984 28.1118 5.79983 27.0623 5.88558C25.9876 5.97339 25.0711 6.15706 24.2321 6.5846C22.8773 7.27489 21.7758 8.37635 21.0855 9.73112C20.658 10.5702 20.4743 11.4866 20.3865 12.5613C20.3008 13.6109 20.3008 14.9117 20.3008 16.5473V16.5999V45.3999V45.4524C20.3008 45.6392 20.3008 45.8217 20.3009 46H22.701C22.7008 45.8071 22.7008 45.6072 22.7008 45.3999V16.5999C22.7008 14.8999 22.7017 13.6971 22.7785 12.7568C22.8542 11.8305 22.9975 11.2651 23.224 10.8207C23.6841 9.91752 24.4184 9.18321 25.3216 8.72302C25.766 8.4966 26.3314 8.35329 27.2577 8.27761C28.198 8.20078 29.4008 8.19985 31.1008 8.19985H48.9008C50.6007 8.19985 51.8035 8.20078 52.7439 8.27761C53.6702 8.35329 54.2356 8.4966 54.6799 8.72302C55.5831 9.18321 56.3174 9.91752 56.7776 10.8207C57.004 11.2651 57.1473 11.8305 57.223 12.7568C57.2999 13.6971 57.3008 14.8999 57.3008 16.5999V45.3999C57.3008 45.6072 57.3008 45.8071 57.3006 46H59.7007C59.7008 45.8217 59.7008 45.6391 59.7008 45.4522V45.3999V16.5999V16.5475C59.7008 14.9118 59.7008 13.6109 59.6151 12.5613C59.5272 11.4866 59.3436 10.5702 58.916 9.73112C58.2257 8.37635 57.1243 7.27489 55.7695 6.5846C54.9304 6.15706 54.014 5.97339 52.9393 5.88558C51.8898 5.79983 50.5889 5.79984 48.9533 5.79985H48.9008H31.1008Z" fill="#A8B0BF"/>
<line x1="29" y1="19.8" x2="40" y2="19.8" stroke="#A8B0BF" stroke-width="2.4"/>
<path d="M44 17L49.6 22.6" stroke="#A8B0BF" stroke-width="2.24" stroke-linecap="square"/>
<path d="M49.6 17L44 22.6" stroke="#A8B0BF" stroke-width="2.24" stroke-linecap="square"/>
<line x1="29" y1="28.3999" x2="51" y2="28.3999" stroke="#A8B0BF" stroke-width="2.4"/>
<line x1="29" y1="37" x2="51" y2="37" stroke="#A8B0BF" stroke-width="2.4"/>
</svg>

<svg width="80" height="80" viewBox="0 0 80 80" fill="none" xmlns="http://www.w3.org/2000/svg"><path opacity=".01" fill="#D8D8D8" d="M0 0H80V80H0z"/><path d="M21.5 26h1.2v-1.2h-1.2V26zm-6.053 3.649-1.104-.47 1.104.47zM7.895 47.38l-1.104-.47-1.098 2.577 2.623-.983-.421-1.124zM21.503 47v1.2h1.206l-.006-1.206-1.2.006zm36.995 0-1.2-.006-.005 1.206h1.205V47zm13.537.354-.407 1.129 2.581.93-1.069-2.527-1.105.468zM64.55 29.662l1.105-.467-1.105.467zM58.5 26v-1.2h-1.2V26h1.2zm-37-1.2h-.533v2.4h.534v-2.4zm-.533 0a7.2 7.2 0 0 0-6.624 4.379l2.208.94a4.8 4.8 0 0 1 4.416-2.919v-2.4zm-6.624 4.379L6.79 46.909 9 47.85l7.552-17.73-2.208-.941zM8.316 48.504A4.787 4.787 0 0 1 10 48.2v-2.4c-.887 0-1.74.161-2.528.457l.843 2.247zM10 48.2h11.502v-2.4H10.001v2.4zm12.702-1.206c-.002-.553-.002-1.149-.002-1.794h-2.4c0 .644 0 1.245.003 1.806l2.4-.012zm-.002-1.794V26h-2.4v19.2h2.4zm35.797 3h11.503v-2.4H58.498v2.4zm11.503 0c.573 0 1.12.1 1.627.283l.814-2.258A7.19 7.19 0 0 0 70 45.8v2.4zm3.14-1.314-7.486-17.691-2.21.935L70.93 47.82l2.21-.935zm-7.486-17.691a7.2 7.2 0 0 0-6.63-4.395v2.4a4.8 4.8 0 0 1 4.42 2.93l2.21-.935zm-6.63-4.395H58.5v2.4h.524v-2.4zM57.3 26v19.2h2.4V26h-2.4zm0 19.2c0 .645 0 1.24-.003 1.794l2.4.012c.003-.56.003-1.162.003-1.806h-2.4z" fill="#A8B0BF"/><path d="m29.125 47 1.19-.149-.13-1.051h-1.06V47zm21.75 0v-1.2h-1.06l-.13 1.051 1.19.149zm-.437 3.496 1.19.149-1.19-.149zm-20.876 0 1.19-.149-1.19.15zM12 48.2h17.125v-2.4H12v2.4zM7.2 53a4.8 4.8 0 0 1 4.8-4.8v-2.4A7.2 7.2 0 0 0 4.8 53h2.4zm0 13V53H4.8v13h2.4zm4.8 4.8A4.8 4.8 0 0 1 7.2 66H4.8a7.2 7.2 0 0 0 7.2 7.2v-2.4zm56 0H12v2.4h56v-2.4zm4.8-4.8a4.8 4.8 0 0 1-4.8 4.8v2.4a7.2 7.2 0 0 0 7.2-7.2h-2.4zm0-13v13h2.4V53h-2.4zM68 48.2a4.8 4.8 0 0 1 4.8 4.8h2.4a7.2 7.2 0 0 0-7.2-7.2v2.4zm-17.125 0H68v-2.4H50.875v2.4zm-1.19-1.349-.438 3.496 2.382.298.437-3.496-2.382-.298zm-.438 3.496A2.8 2.8 0 0 1 46.47 52.8v2.4a5.2 5.2 0 0 0 5.16-4.555l-2.382-.298zM46.47 52.8H33.53v2.4H46.47v-2.4zm-12.938 0a2.8 2.8 0 0 1-2.778-2.453l-2.382.298a5.2 5.2 0 0 0 5.16 4.555v-2.4zm-2.778-2.453-.437-3.496-2.382.298.437 3.496 2.382-.298z" fill="#A8B0BF"/><path fill-rule="evenodd" clip-rule="evenodd" d="M31.1 5.8h-.052c-1.635 0-2.936 0-3.986.086-1.074.087-1.99.271-2.83.699a7.2 7.2 0 0 0-3.146 3.146c-.428.84-.612 1.756-.7 2.83-.085 1.05-.085 2.35-.085 3.986V46h2.4V16.6c0-1.7 0-2.903.078-3.843.075-.926.218-1.492.445-1.936a4.8 4.8 0 0 1 2.098-2.098c.444-.226 1.01-.37 1.936-.445C28.198 8.2 29.4 8.2 31.1 8.2h17.8c1.7 0 2.902 0 3.843.078.926.075 1.492.219 1.936.445a4.8 4.8 0 0 1 2.098 2.098c.226.444.37 1.01.445 1.936.077.94.078 2.143.078 3.843V46h2.4V16.547c0-1.635 0-2.936-.086-3.986-.088-1.074-.271-1.99-.699-2.83a7.2 7.2 0 0 0-3.146-3.146c-.84-.428-1.756-.612-2.83-.7-1.05-.085-2.351-.085-3.987-.085H31.101z" fill="#A8B0BF"/><path stroke="#A8B0BF" stroke-width="2.4" d="M29 19.8 40 19.8"/><path d="m44 17 5.6 5.6M49.6 17 44 22.6" stroke="#A8B0BF" stroke-width="2.24" stroke-linecap="square"/><path stroke="#A8B0BF" stroke-width="2.4" d="M29 28.4 51 28.4"/><path stroke="#A8B0BF" stroke-width="2.4" d="M29 37 51 37"/></svg>
